X:105
T: HERR BRUDER ZUR RECHTEN
N: E1145
O: Europa, Mitteleuropa, Deutschland, Schlesien, Glogau
R: Trink -, Zech - Lied
M: 3/4
L: 1/8
K: D
DE | F2F2F2 | F2E2
EF | G2G2G2 | G2F2
AA | d2c2BB | A2F2
AA | G2E2c2 | d2D2

@@@ Tune index: 4789
